svg/ev_plug_chademo.svg

<svg xmlns="http://www.w3.org/2000/svg" width="24" height="24" viewBox="0 0 24 24"><path d="M12 2a10 10 0 1 0 10 10A10 10 0 0 0 12 2zm0 18a8 8 0 1 1 8-8 8 8 0 0 1-8 8zm3.5-10a2 2 0 1 0 2 2 2 2 0 0 0-2-2zm0 3a1 1 0 1 1 1-1 1 1 0 0 1-1 1zm-7-3a2 2 0 1 0 2 2 2 2 0 0 0-2-2zm0 3a1 1 0 1 1 1-1 1 1 0 0 1-1 1zm1.75-4.17l1.06-1.06-1.06-1.06L11 6l1 1.06L13.08 6l.71.71-1.07 1.06 1.07 1.06-.71.71L12 8.47l-1 1.07zm3.54 6.34l-1.07 1.06 1.07 1.06-.71.71L12 16.93 11 18l-.71-.71 1.06-1.06-1.06-1.06.71-.71 1 1.06 1.06-1.06z"/><path fill="none" d="M0 0h24v24H0z"/></svg>

<svg xmlns="http://www.w3.org/2000/svg" width="24" height="24" viewBox="0 0 24 24"><path d="M12,2A10,10,0,1,0,22,12,10,10,0,0,0,12,2Zm0,18a8,8,0,1,1,8-8A8,8,0,0,1,12,20Zm3.5-10a2,2,0,1,0,2,2A2,2,0,0,0,15.5,10Zm0,3a1,1,0,1,1,1-1A1,1,0,0,1,15.5,13Zm-7-3a2,2,0,1,0,2,2A2,2,0,0,0,8.5,10Zm0,3a1,1,0,1,1,1-1A1,1,0,0,1,8.5,13Zm1.75-4.17,1.06-1.06L10.25,6.71,11,6,12,7.06,13.08,6l.71.71L12.72,7.77l1.07,1.06-.71.71L12,8.47,11,9.54Zm3.54,6.34-1.07,1.06,1.07,1.06-.71.71L12,16.93,11,18l-.71-.71,1.06-1.06-1.06-1.06.71-.71L12,15.52l1.06-1.06Z"/><rect width="24" height="24" fill="none"/></svg>
